img/gold-lines-slider.svg

<svg width="101" height="519" fill="none" xmlns="http://www.w3.org/2000/svg"><path d="M0 0h3v519H0V0ZM42 0h3v519h-3V0ZM28 0h3v519h-3V0ZM98 0h3v519h-3V0ZM14 0h3v519h-3V0ZM70 0h3v519h-3V0ZM56 0h3v519h-3V0ZM84 0h3v519h-3V0Z" fill="#DBBC9A"/></svg>

<svg width="101" height="519" viewBox="0 0 101 519" fill="none" xmlns="http://www.w3.org/2000/svg">
<path d="M0 0H3V519H0V0Z" fill="#DBBC9A"/>
<path d="M42 0H45V519H42V0Z" fill="#DBBC9A"/>
<path d="M28 0H31V519H28V0Z" fill="#DBBC9A"/>
<path d="M98 0H101V519H98V0Z" fill="#DBBC9A"/>
<path d="M14 0H17V519H14V0Z" fill="#DBBC9A"/>
<path d="M70 0H73V519H70V0Z" fill="#DBBC9A"/>
<path d="M56 0H59V519H56V0Z" fill="#DBBC9A"/>
<path d="M84 0H87V519H84V0Z" fill="#DBBC9A"/>
</svg>
